src/cmd/ca/lc_underline.svg

<svg viewBox="0 0 24 24" xmlns="http://www.w3.org/2000/svg"><path d="m12.367188 4c-3.2113233-.0295029-6.6963774 2.1061258-4.9277349 7.082031 1.6188496 2.719088 5.2117509 2.091689 6.9999999 4.783203 1.868809 3.686137-4.382597 4.28189-6.439453-.867187h-1v3c.1910978 2.515798 11.999999 3.999994 10-4-.508475-1.006522-.988037-1.973119-2.355469-2.535156-11.9999934-2.9999973-1.643606-10.3808539.396485-2.3808598h.958984v-2.7480468c-.015035-1.499999-1.706021-2.3162826-3.632812-2.3339844zm-7.367188 19v1h14v-1z" fill="#232629"/></svg>

<?xml version="1.0" encoding="UTF-8" standalone="no"?>
<svg
   xmlns:dc="http://purl.org/dc/elements/1.1/"
   xmlns:cc="http://creativecommons.org/ns#"
   xmlns:rdf="http://www.w3.org/1999/02/22-rdf-syntax-ns#"
   xmlns:svg="http://www.w3.org/2000/svg"
   xmlns="http://www.w3.org/2000/svg"
   xmlns:sodipodi="http://sodipodi.sourceforge.net/DTD/sodipodi-0.dtd"
   xmlns:inkscape="http://www.inkscape.org/namespaces/inkscape"
   viewBox="0 0 24 24"
   version="1.1"
   id="svg4"
   sodipodi:docname="lc_underline.svg"
   inkscape:version="0.92.4 (5da689c313, 2019-01-14)"
   inkscape:export-filename="/home/jupiter007/Libreoffice yaru theme fullcolor/build/cmd/ca/lc_underline.png"
   inkscape:export-xdpi="96"
   inkscape:export-ydpi="96">
  <metadata
     id="metadata10">
    <rdf:RDF>
      <cc:Work
         rdf:about="">
        <dc:format>image/svg+xml</dc:format>
        <dc:type
           rdf:resource="http://purl.org/dc/dcmitype/StillImage" />
      </cc:Work>
    </rdf:RDF>
  </metadata>
  <defs
     id="defs8" />
  <sodipodi:namedview
     pagecolor="#ffffff"
     bordercolor="#666666"
     borderopacity="1"
     objecttolerance="10"
     gridtolerance="10"
     guidetolerance="10"
     inkscape:pageopacity="0"
     inkscape:pageshadow="2"
     inkscape:window-width="1920"
     inkscape:window-height="1011"
     id="namedview6"
     showgrid="true"
     inkscape:zoom="19.666667"
     inkscape:cx="-9.8923621"
     inkscape:cy="-0.7410743"
     inkscape:window-x="0"
     inkscape:window-y="32"
     inkscape:window-maximized="1"
     inkscape:current-layer="svg4">
    <inkscape:grid
       type="xygrid"
       id="grid817" />
  </sodipodi:namedview>
  <path
     sodipodi:nodetypes="sccccccccccsccccc"
     style="fill:#fffcfc;fill-opacity:1;stroke:#ffffff;stroke-opacity:1;stroke-width:2;stroke-miterlimit:4;stroke-dasharray:none;opacity:0.94"
     inkscape:connector-curvature="0"
     id="path819"
     d="M 12.367188,4 C 9.1558647,3.9704971 5.6708106,6.1061258 7.4394531,11.082031 9.0583027,13.801119 12.651204,13.17372 14.439453,15.865234 16.308262,19.551371 10.056856,20.147124 8,14.998047 H 7 v 3 c 0.1910978,2.515798 11.999999,3.999994 10,-4 C 16.491525,12.991525 16.011963,12.024928 14.644531,11.462891 2.6445376,8.4628937 13.000925,1.0820371 15.041016,9.0820312 H 16 V 6.3339844 C 15.984965,4.8339854 14.293979,4.0177018 12.367188,4 Z M 5,22 v 1 h 14 v -1 z" />
  <path
     d="M 12.367188,4 C 9.1558647,3.9704971 5.6708106,6.1061258 7.4394531,11.082031 9.0583027,13.801119 12.651204,13.17372 14.439453,15.865234 16.308262,19.551371 10.056856,20.147124 8,14.998047 H 7 v 3 c 0.1910978,2.515798 11.999999,3.999994 10,-4 C 16.491525,12.991525 16.011963,12.024928 14.644531,11.462891 2.6445376,8.4628937 13.000925,1.0820371 15.041016,9.0820312 H 16 V 6.3339844 C 15.984965,4.8339854 14.293979,4.0177018 12.367188,4 Z M 5,22 v 1 h 14 v -1 z"
     id="path2"
     inkscape:connector-curvature="0"
     style="fill:#6d6d6d;fill-opacity:1"
     sodipodi:nodetypes="sccccccccccsccccc" />
</svg>
